Papirus-Dark/16x16/actions/view-split-top-bottom.svg

<?xml version="1.0" encoding="UTF-8" standalone="no"?>
<svg xmlns="http://www.w3.org/2000/svg" width="16" height="16" viewBox="0 0 16 16">
 <defs>
  <style type="text/css" id="current-color-scheme">
   .ColorScheme-Text { color:#d3dae3; }
  </style>
 </defs>
 <path style="fill:currentColor;opacity:1" class="ColorScheme-Text" d="M 0 1 L 0 15 C 5.3333 14.998 10.667 15.005906 16 15.003906 L 16 1.0039062 C 10.667 1.0058063 5.333 0.998 0 1 z M 2 3 L 14 3 L 14 7 L 2 7 L 2 3 z M 2 9 L 14 9 L 14 13.005859 L 9 13.005859 L 9 13 L 7 13 L 7 13.003906 L 2 13.005859 L 2 9 z"/>
</svg>

<?xml version="1.0" encoding="UTF-8" standalone="no"?>
<!--Created with Inkscape (http://www.inkscape.org/)-->
<svg id="svg7384" xmlns:rdf="http://www.w3.org/1999/02/22-rdf-syntax-ns#" style="enable-background:new" xmlns="http://www.w3.org/2000/svg" height="16" width="16" version="1.1" xmlns:cc="http://creativecommons.org/ns#" xmlns:dc="http://purl.org/dc/elements/1.1/">
 <metadata id="metadata90">
  <rdf:RDF>
   <cc:Work rdf:about="">
    <dc:format>image/svg+xml</dc:format>
    <dc:type rdf:resource="http://purl.org/dc/dcmitype/StillImage"/>
   </cc:Work>
  </rdf:RDF>
 </metadata>
 <g id="layer12" transform="translate(-505 -20.997)">
  <path id="rect5700" opacity="1" fill="#d3dae3" transform="translate(505 20.997)" d="m0 1v14c5.3333-0.002 10.667 0.006 16 0.004v-14c-5.333 0.0019-10.667-0.006-16-0.004zm2 2h12v4h-12v-4zm0 6h12v4.006h-5v-0.006h-2v0.004l-5 0.002v-4.006z"/>
 </g>
</svg>
